X: 6832
T: Charlie Hunter
R: jig
M: 6/8
K: Dmajor
|:DFA GBd|Adf a2g|f3 dcd|ecA GFE|
DFA GBd|Adf a2g|f3 gec|1 edc d3:|2 edc d2 f/g/||
|:afd dB/c/d|BGG G2F|E3 e2d|cAA A2 e|
fdA DFA|G3 g2e|f3 gec|1 edc d2 f/g/:|2 edc d3||

